X:1
T:Psalm 101
T:V 1
L:1/4
M:18/4
I:linebreak $
K:G
V:1 treble nm="Pipe Organ" snm="Org."
V:1
 D2 G2 B2 A B d c B2 A2 G3 z |$[M:16/4] G2 F E D G G A B2 c2 B3 z |$ B2 d c B2 A2 G F G A B3 z |$ %3
w: ‘kWil in my lied van reg en goed- heid sing|en U daar- voor my hoog- ste hul- de bring.|Op- regt- heid sal ek, HEER, bo al- les ag,|
[M:10/4] c2 B2 A2 G4 |] %4
w: en U ver- wag.|

